build/img/logo.svg

<svg width="132" height="32" viewBox="0 0 132 32"  xmlns="http://www.w3.org/2000/svg">
<path d="M56.419 25.1722C54.7575 25.1722 53.3334 24.796 52.1467 24.0436C50.9769 23.2912 50.1546 22.2607 49.6799 20.9522L51.7144 19.8236C52.4095 21.9009 53.9946 22.9395 56.4699 22.9395C57.6905 22.9395 58.623 22.7023 59.2672 22.228C59.9115 21.7373 60.2336 21.0913 60.2336 20.2898C60.2336 19.472 59.9115 18.8586 59.2672 18.4497C58.623 18.0408 57.5464 17.6074 56.0375 17.1494C55.2916 16.9204 54.7236 16.7405 54.3337 16.6096C53.9438 16.4624 53.4521 16.2498 52.8587 15.9717C52.2823 15.6773 51.85 15.3829 51.5618 15.0885C51.2736 14.7777 51.0108 14.377 50.7734 13.8863C50.553 13.3956 50.4428 12.8395 50.4428 12.2179C50.4428 10.7295 50.9854 9.55186 52.0704 8.68497C53.1554 7.80173 54.4778 7.36011 56.0375 7.36011C57.4447 7.36011 58.6654 7.70359 59.6995 8.39056C60.7507 9.07752 61.539 9.9853 62.0646 11.1139L60.081 12.2179C59.3181 10.4515 57.9703 9.56821 56.0375 9.56821C55.0712 9.56821 54.2913 9.7972 53.6979 10.2552C53.1046 10.7132 52.8079 11.3347 52.8079 12.1198C52.8079 12.8722 53.0876 13.4447 53.6471 13.8372C54.2066 14.2298 55.1729 14.6387 56.5462 15.0639C57.0378 15.2111 57.3854 15.3175 57.5888 15.3829C57.7922 15.4483 58.1059 15.5628 58.5297 15.7264C58.9705 15.8899 59.2926 16.0208 59.4961 16.1189C59.6995 16.2171 59.9708 16.3561 60.3099 16.536C60.6659 16.7159 60.9287 16.8877 61.0982 17.0512C61.2677 17.2148 61.4627 17.4193 61.6831 17.6646C61.9205 17.8936 62.09 18.1308 62.1917 18.3761C62.2934 18.6214 62.3782 18.9077 62.446 19.2348C62.5308 19.5456 62.5732 19.8809 62.5732 20.2407C62.5732 21.7455 62.0052 22.9477 60.8693 23.8473C59.7334 24.7305 58.25 25.1722 56.419 25.1722Z" fill="black"/>
<path d="M71.477 12.267C72.9689 12.267 74.1642 12.725 75.0627 13.6409C75.9613 14.5405 76.4105 15.7673 76.4105 17.3211V24.8532H74.1981V17.4438C74.1981 16.4461 73.9183 15.6773 73.3589 15.1375C72.7994 14.5814 72.028 14.3034 71.0447 14.3034C69.9427 14.3034 69.0526 14.6387 68.3745 15.3093C67.6964 15.9635 67.3573 16.9776 67.3573 18.3516V24.8532H65.1448V12.586H67.3573V14.3524C68.2558 12.9622 69.6291 12.267 71.477 12.267Z" fill="black"/>
<path d="M80.6181 10.3533C80.1942 10.3533 79.8382 10.2143 79.55 9.93623C79.2618 9.65817 79.1177 9.32287 79.1177 8.93032C79.1177 8.53776 79.2618 8.20246 79.55 7.9244C79.8382 7.62999 80.1942 7.48278 80.6181 7.48278C81.025 7.48278 81.3725 7.62999 81.6607 7.9244C81.9489 8.20246 82.093 8.53776 82.093 8.93032C82.093 9.32287 81.9489 9.65817 81.6607 9.93623C81.3725 10.2143 81.025 10.3533 80.6181 10.3533ZM79.4991 24.8532V12.586H81.7116V24.8532H79.4991Z" fill="black"/>
<path d="M95.844 24.8532H93.0975L87.2993 19.0385V24.8532H85.0869V7.67906H87.2993V18.0081L92.7923 12.586H95.6405L89.5626 18.5233L95.844 24.8532Z" fill="black"/>
<path d="M104.92 12.267C106.7 12.267 108.218 12.8967 109.472 14.1562C110.727 15.3992 111.354 16.9204 111.354 18.7196C111.354 20.5188 110.727 22.0481 109.472 23.3075C108.218 24.5506 106.7 25.1722 104.92 25.1722C102.818 25.1722 101.216 24.3625 100.114 22.7432V29.7601H97.9014V12.586H100.114V14.6959C101.216 13.0766 102.818 12.267 104.92 12.267ZM104.641 23.1113C105.912 23.1113 106.98 22.6942 107.845 21.86C108.709 21.0095 109.142 19.9627 109.142 18.7196C109.142 17.4765 108.709 16.4379 107.845 15.6037C106.98 14.7532 105.912 14.3279 104.641 14.3279C103.352 14.3279 102.275 14.7532 101.411 15.6037C100.546 16.4379 100.114 17.4765 100.114 18.7196C100.114 19.9627 100.546 21.0095 101.411 21.86C102.275 22.6942 103.352 23.1113 104.641 23.1113Z" fill="black"/>
<path d="M115.113 10.3533C114.689 10.3533 114.333 10.2143 114.045 9.93623C113.757 9.65817 113.613 9.32287 113.613 8.93032C113.613 8.53776 113.757 8.20246 114.045 7.9244C114.333 7.62999 114.689 7.48278 115.113 7.48278C115.52 7.48278 115.868 7.62999 116.156 7.9244C116.444 8.20246 116.588 8.53776 116.588 8.93032C116.588 9.32287 116.444 9.65817 116.156 9.93623C115.868 10.2143 115.52 10.3533 115.113 10.3533ZM113.994 24.8532V12.586H116.207V24.8532H113.994Z" fill="black"/>
<path d="M125.558 25.1722C123.642 25.1722 122.049 24.5588 120.777 23.3321C119.506 22.089 118.87 20.5515 118.87 18.7196C118.87 16.8877 119.506 15.3584 120.777 14.1316C122.049 12.8885 123.642 12.267 125.558 12.267C126.813 12.267 127.94 12.5614 128.94 13.1502C129.941 13.7227 130.687 14.4996 131.178 15.481L129.322 16.5115C129 15.8572 128.5 15.3338 127.821 14.9413C127.16 14.5487 126.406 14.3524 125.558 14.3524C124.287 14.3524 123.218 14.7695 122.354 15.6037C121.506 16.4379 121.082 17.4765 121.082 18.7196C121.082 19.9463 121.506 20.9768 122.354 21.8109C123.218 22.6451 124.287 23.0622 125.558 23.0622C126.406 23.0622 127.169 22.8741 127.847 22.4979C128.525 22.1053 129.042 21.5819 129.398 20.9277L131.28 21.9827C130.737 22.9477 129.958 23.7246 128.94 24.3134C127.923 24.8859 126.796 25.1722 125.558 25.1722Z" fill="black"/>
<ellipse cx="17.04" cy="16" rx="16.32" ry="16" fill="#F0998D"/>
<path d="M14.2487 6.26099V9.47585C14.2487 9.47585 11.7283 9.66636 11.7687 11.9343C11.7375 12.5281 11.9366 13.1115 12.3259 13.5675C12.7151 14.0234 13.2659 14.3182 13.8676 14.3927H19.9721C19.9721 14.3927 25.3931 14.4709 25.3148 20.4445C25.2486 25.3828 19.5889 25.7393 19.5889 25.7393V22.5244C19.5889 22.5244 21.9894 22.3325 22.0689 20.2554C22.1058 19.9172 22.0687 19.5752 21.9602 19.2521C21.8517 18.9291 21.6742 18.6324 21.4395 18.3819C21.2048 18.1314 20.9184 17.9327 20.5993 17.7993C20.2802 17.6658 19.9357 17.6006 19.5889 17.6079H13.6765C13.6765 17.6079 8.47845 17.1416 8.52497 11.9343C8.57078 6.82586 13.3057 6.27116 14.2487 6.26099Z" fill="white"/>
</svg>

<svg width="132" height="32" xmlns="http://www.w3.org/2000/svg"><path d="M56.419 25.172c-1.661 0-3.086-.376-4.272-1.128a6.024 6.024 0 01-2.467-3.092l2.034-1.128c.696 2.077 2.28 3.115 4.756 3.115 1.22 0 2.153-.237 2.797-.711.644-.49.967-1.137.967-1.938 0-.818-.323-1.431-.967-1.84-.644-.41-1.72-.843-3.23-1.3a74.222 74.222 0 01-1.703-.54c-.39-.148-.882-.36-1.475-.638-.577-.295-1.009-.59-1.297-.883-.288-.311-.551-.712-.789-1.203-.22-.49-.33-1.046-.33-1.668 0-1.489.542-2.666 1.627-3.533 1.085-.883 2.408-1.325 3.968-1.325 1.407 0 2.627.344 3.662 1.03a6.447 6.447 0 012.365 2.724l-1.984 1.104c-.763-1.767-2.11-2.65-4.044-2.65-.966 0-1.746.23-2.34.687-.592.458-.89 1.08-.89 1.865 0 .752.28 1.325.84 1.717.56.393 1.526.802 2.9 1.227.49.147.838.254 1.042.319.203.065.517.18.94.343.441.164.764.295.967.393.203.098.475.237.814.417.356.18.619.352.788.515.17.164.365.368.585.614.237.229.407.466.509.711.101.245.186.532.254.859.085.31.127.646.127 1.006 0 1.505-.568 2.707-1.704 3.606-1.136.883-2.619 1.325-4.45 1.325zm15.058-12.905c1.492 0 2.687.458 3.586 1.374.898.9 1.347 2.126 1.347 3.68v7.532h-2.212v-7.41c0-.997-.28-1.766-.84-2.306-.559-.556-1.33-.834-2.313-.834-1.102 0-1.992.336-2.67 1.006-.679.655-1.018 1.669-1.018 3.043v6.501h-2.212V12.586h2.212v1.766c.899-1.39 2.272-2.085 4.12-2.085zm9.141-1.914c-.424 0-.78-.139-1.068-.417a1.347 1.347 0 01-.432-1.006c0-.392.144-.728.432-1.006a1.435 1.435 0 011.068-.441c.407 0 .755.147 1.043.441.288.278.432.614.432 1.006 0 .393-.144.728-.432 1.006a1.447 1.447 0 01-1.043.417zm-1.119 14.5V12.586h2.213v12.267h-2.213zm16.345 0h-2.746l-5.799-5.815v5.815h-2.212V7.68h2.212v10.33l5.493-5.423h2.849l-6.078 5.937 6.281 6.33zm9.076-12.586c1.78 0 3.298.63 4.552 1.89 1.255 1.242 1.882 2.763 1.882 4.563 0 1.799-.627 3.328-1.882 4.588-1.254 1.243-2.772 1.864-4.552 1.864-2.102 0-3.704-.81-4.806-2.429v7.017h-2.213V12.586h2.213v2.11c1.102-1.62 2.704-2.429 4.806-2.429zm-.279 10.844c1.271 0 2.339-.417 3.204-1.251.864-.85 1.297-1.897 1.297-3.14s-.433-2.282-1.297-3.116c-.865-.85-1.933-1.276-3.204-1.276-1.289 0-2.366.425-3.23 1.276-.865.834-1.297 1.873-1.297 3.116s.432 2.29 1.297 3.14c.864.834 1.941 1.251 3.23 1.251zm10.472-12.758c-.424 0-.78-.139-1.068-.417a1.348 1.348 0 01-.432-1.006c0-.392.144-.728.432-1.006a1.435 1.435 0 011.068-.441c.407 0 .755.147 1.043.441.288.278.432.614.432 1.006 0 .393-.144.728-.432 1.006a1.448 1.448 0 01-1.043.417zm-1.119 14.5V12.586h2.213v12.267h-2.213zm11.564.319c-1.916 0-3.509-.613-4.781-1.84-1.271-1.243-1.907-2.78-1.907-4.612 0-1.832.636-3.362 1.907-4.588 1.272-1.243 2.865-1.865 4.781-1.865 1.255 0 2.382.294 3.382.883 1.001.573 1.747 1.35 2.238 2.331l-1.856 1.03c-.322-.654-.822-1.177-1.501-1.57-.661-.392-1.415-.589-2.263-.589-1.271 0-2.34.418-3.204 1.252-.848.834-1.272 1.873-1.272 3.116 0 1.226.424 2.257 1.272 3.09.864.835 1.933 1.252 3.204 1.252.848 0 1.611-.188 2.289-.564a4.009 4.009 0 001.551-1.57l1.882 1.055c-.543.965-1.322 1.742-2.34 2.33-1.017.573-2.144.86-3.382.86z"/><ellipse cx="17.04" cy="16" rx="16.32" ry="16" fill="#F0998D"/><path d="M14.249 6.261v3.215s-2.52.19-2.48 2.458a2.326 2.326 0 00.557 1.634c.39.455.94.75 1.542.825h6.104s5.421.078 5.343 6.052c-.066 4.938-5.726 5.294-5.726 5.294v-3.215s2.4-.192 2.48-2.269c.037-.338 0-.68-.109-1.003a2.383 2.383 0 00-.52-.87 2.441 2.441 0 00-.84-.583 2.484 2.484 0 00-1.011-.191h-5.912s-5.199-.466-5.152-5.674c.046-5.108 4.78-5.663 5.724-5.673z" fill="#fff"/></svg>
